X: 041
T: Mrs Kelso of Danhieth's Reel
C: attr. John French (1753-1803)
R: reel
B: "John French Collection", John French ed. p.4 #1
S: http://www.heallan.com/french.asp
Z: 2012 John Chambers <jc:trillian.mit.edu>
M: C
L: 1/8
K: Eb
|:\
(Ee)(Ge) EeGE | F/F/F (TcB) cFF(G | EF)GB efge | Beag Tf2e2 :: egbg egBe |
cFAc faTg>f |1 egbg egBe | ceag Tf2eg :|2 eEGB efge | ceag Tf2e2 |]

%%sep 2 1 500
%%sep 1 1 500

